logos/fogbugz.svg

<?xml version="1.0" encoding="UTF-8"?>
<svg width="512px" height="111px" viewBox="0 0 512 111" version="1.1" xmlns="http://www.w3.org/2000/svg" preserveAspectRatio="xMidYMid">
    <title>FogBugz</title>
    <defs>
        <linearGradient x1="-24.5127119%" y1="75.5639723%" x2="130.063559%" y2="-56.513466%" id="fogBugzLinearGradient-1">
            <stop stop-color="#AB68FC" offset="0%"></stop>
            <stop stop-color="#5521B3" offset="86%"></stop>
        </linearGradient>
        <linearGradient x1="104.596484%" y1="100.586326%" x2="48.2524889%" y2="48.3901536%" id="fogBugzLinearGradient-2">
            <stop stop-color="#AA69FF" offset="2%"></stop>
            <stop stop-color="#C6B1FF" offset="86%"></stop>
        </linearGradient>
    </defs>
    <g>
        <g>
            <path d="M32.427047,110.591696 L92.2611602,58.312907 L32.5284607,58.312907 C32.5284607,58.312907 32.4397237,108.576097 32.427047,110.591696 Z" fill="url(#fogBugzLinearGradient-1)"></path>
            <path d="M59.84679,0 L-7.20588043e-14,58.312907 L59.5805789,58.312907 C59.5805789,58.312907 59.8341132,1.52120627 59.84679,0 Z" fill="url(#fogBugzLinearGradient-2)"></path>
        </g>
        <path d="M157.913887,25.568942 C159.185187,25.5828369 160.208656,26.6174058 160.208656,27.8887816 L160.208656,33.9102231 C160.215376,34.5226798 159.967401,35.1104716 159.523831,35.5328431 C159.100608,35.966016 158.519479,36.2085345 157.913887,36.2047092 L130.823739,36.2047092 L130.823739,52.6844438 L156.177177,52.6844438 C157.421302,52.7110443 158.425455,53.7096187 158.458986,54.9535765 L158.458986,60.9876947 C158.438626,62.2463745 157.42318,63.2618208 156.1645,63.2821808 L130.811062,63.2821808 L130.811062,82.7282676 C130.790702,83.9869475 129.775256,85.0023937 128.516576,85.0227537 L121.696502,85.0227537 C120.437822,85.0023937 119.422375,83.9869475 119.402015,82.7282676 L119.402015,27.8887816 C119.402015,26.6174058 120.425202,25.5828369 121.696502,25.568942 L157.913887,25.568942 Z M167.33269,47.7278467 C167.475464,44.6682393 168.091245,41.6492021 169.158137,38.7780831 C170.161935,36.0382192 171.739473,33.5444124 173.78514,31.4636163 C175.952231,29.3147122 178.542366,27.6397578 181.391171,26.5450494 C184.86455,25.2553449 188.550973,24.6359226 192.255119,24.7196019 C195.929567,24.6435277 199.586581,25.2451518 203.043007,26.4943425 C208.728661,28.594179 213.223902,33.0570473 215.364778,38.7273763 C216.457893,41.6101399 217.086866,44.6480356 217.228255,47.7278467 C217.228255,48.0870204 217.239523,48.4588708 217.255487,48.843398 L217.310889,50.0350095 C217.329669,50.4448901 217.346571,50.8674474 217.355022,51.3026814 C217.374037,52.281958 217.36453,53.2826265 217.358588,54.3046869 L217.355022,59.3650746 L217.355022,59.3650746 C217.355022,59.9192284 217.341052,60.4640686 217.321095,60.9876208 L217.228255,62.9399094 C217.118144,65.9983006 216.536619,69.0213714 215.504221,71.9023496 C214.498467,74.6375162 212.921063,77.1267903 210.877219,79.2041397 C208.69317,81.3593261 206.074072,83.0232741 203.195127,84.0846765 C196.157206,86.4677626 188.530506,86.4677626 181.492585,84.0846765 C178.640792,83.0136919 176.048456,81.3502766 173.886553,79.2041397 C171.837449,77.1309717 170.259278,74.6404875 169.259551,71.9023496 C168.157911,69.0324125 167.507903,66.0090215 167.33269,62.9399094 C167.33269,62.5807357 167.321421,62.2088853 167.304989,61.8243581 L167.21678,60.0084181 C167.207683,59.7971395 167.199584,59.5826917 167.193246,59.3650746 C167.174231,58.7122236 167.174231,58.0530342 167.178984,57.3827527 L167.193246,55.333878 L167.193246,55.333878 L167.193246,51.3026814 L167.193246,51.3026814 C167.193246,50.8674474 167.208739,50.4448901 167.229398,50.0350095 L167.296537,48.843398 C167.317196,48.4588708 167.33269,48.0870204 167.33269,47.7278467 Z M205.806531,48.1588551 C205.802645,44.6014303 204.378926,41.1927185 201.851395,38.6893461 C196.277423,34.1922665 188.321552,34.1922665 182.74758,38.6893461 C180.221582,41.1979039 178.802275,44.611543 178.80512,48.1715319 C178.72906,49.6082267 178.68117,51.1463352 178.657695,52.7933697 L178.642131,54.476991 L178.642131,54.476991 L178.642131,57.0729535 C178.648461,59.0487827 178.676944,60.8848724 178.80512,62.5215777 C178.803583,66.0689487 180.22893,69.4678543 182.760257,71.9530565 C188.363893,76.3653252 196.260436,76.3653252 201.864072,71.9530565 C204.395398,69.4678543 205.820746,66.0689487 205.819208,62.5215777 L205.851569,61.7980831 L205.851569,61.7980831 L205.907006,60.2951702 C205.931421,59.5251769 205.95067,58.7274826 205.963817,57.9025569 L205.981693,56.2165359 C205.983223,55.9295273 205.984006,55.6395278 205.984006,55.3465548 L205.981693,54.4765736 L205.981693,54.4765736 L205.963817,52.7905526 C205.95067,51.9656269 205.931421,51.1679326 205.907006,50.3979393 L205.851569,48.8950265 C205.841275,48.6507431 205.830476,48.4095725 205.819208,48.1715319 L205.806531,48.1588551 Z M226.36817,47.5630493 C226.424261,44.3793997 227.037797,41.2302048 228.18094,38.2583377 C229.27604,35.5215608 230.959539,33.0590651 233.112184,31.0452846 C235.406071,28.9548897 238.108019,27.362208 241.04781,26.3675753 C248.625894,24.0819808 256.722567,24.1748934 264.246206,26.6337864 C267.044594,27.6718708 269.624249,29.2239636 271.852237,31.210082 C273.601292,32.738352 274.990856,34.6343939 275.921464,36.7624848 C276.572791,38.2902953 276.999767,39.9042627 277.189136,41.5542846 C277.274891,42.1797055 277.03596,42.8057031 276.5553,43.2149348 C276.103499,43.631331 275.508995,43.858241 274.89465,43.8487707 L268.023868,43.8487707 C267.484638,43.8808648 266.952378,43.7139696 266.528015,43.3797321 C266.26131,43.1684705 266.03362,42.9131249 265.854482,42.6253522 L265.638211,42.2396387 L265.638211,42.2396387 L265.321394,41.709042 L265.321394,41.709042 L264.829335,40.9204486 L264.829335,40.9204486 C264.207401,40.0076125 263.435981,39.2061934 262.547525,38.5499022 C261.289189,37.6143458 259.901314,36.8670286 258.427592,36.3314764 C256.389867,35.6309416 254.243309,35.3003715 252.089232,35.355369 C248.394781,35.1838108 244.772089,36.415526 241.947857,38.8034366 C239.371913,41.1792007 237.89431,44.5152799 237.865954,48.0194112 C237.768164,49.8557245 237.716937,51.8131134 237.704298,53.8915779 L237.701478,55.85964 L237.701478,55.85964 L237.709847,57.6489886 C237.724331,59.1141152 237.762955,60.5154869 237.865954,61.8623883 C238.043428,66.5527743 239.399837,69.9754884 241.947857,72.0925004 C244.842635,74.3248658 248.438026,75.4529198 252.089232,75.2743569 C254.036409,75.2893094 255.977976,75.0636449 257.869816,74.6024908 C259.526236,74.1893818 261.074145,73.4240748 262.408081,72.3587115 C263.72716,71.28962 264.752364,69.9023235 265.38711,68.3275149 C266.140769,66.3633899 266.498358,64.2695556 266.439278,62.1666295 L266.439278,61.4947634 L256.069722,61.4947634 C254.811042,61.4744034 253.795596,60.4589572 253.775236,59.2002773 L253.775236,53.1661591 C253.795596,51.9074792 254.811042,50.892033 256.069722,50.871673 L275.604546,50.871673 C276.863226,50.892033 277.878672,51.9074792 277.899032,53.1661591 L277.899032,62.5089009 C277.949076,65.7073182 277.425269,68.8887996 276.352472,71.9023496 C275.311276,74.6969848 273.656488,77.2224859 271.509966,79.2928768 C269.192222,81.4585527 266.439322,83.1051071 263.434896,84.1227067 C256.110605,86.4212518 248.25801,86.4212518 240.93372,84.1227067 C237.990319,83.1237238 235.29668,81.5023519 233.036124,79.3689371 C230.914275,77.3005417 229.273941,74.7902685 228.231647,72.0164401 C227.099682,69.0144999 226.482531,65.8430289 226.4062,62.6356681 C226.4062,62.2764944 226.394932,61.904644 226.378968,61.5201169 L226.323566,60.3285053 C226.304786,59.9186247 226.287884,59.4960674 226.279433,59.0608334 C226.266756,58.4079824 226.266756,57.7519622 226.269925,57.088019 L226.279433,55.0676669 L226.279433,55.0676669 L226.279433,51.0745005 C226.279433,49.7687984 226.304786,48.6405705 226.36817,47.5630493 Z M290.918022,85.0227537 C289.659342,85.0023937 288.643896,83.9869475 288.623536,82.7282676 L288.623536,27.8887816 C288.637249,26.6272957 289.656536,25.6080085 290.918022,25.5942955 L315.967219,25.5942955 C319.079367,25.4951751 322.17718,26.0568428 325.056426,27.2422689 C327.283104,28.2065466 329.282636,29.6273805 330.925747,31.4129095 C332.345973,32.9898426 333.428767,34.8405153 334.107604,36.8512219 C334.722973,38.6129245 335.052507,40.4617396 335.083711,42.3275644 C335.107756,43.8677452 334.876443,45.4012672 334.399168,46.8658298 C334.01233,48.0701418 333.45754,49.2138634 332.751195,50.2631905 C332.19526,51.0897246 331.562868,51.862176 330.862364,52.5703533 C330.386964,53.0498298 329.859758,53.4749958 329.29045,53.8380252 C331.208919,55.2089342 332.851771,56.9291985 334.132957,58.9087128 C335.574181,61.2434461 336.320396,63.936511 336.290119,66.6730721 L336.275322,67.1866102 C336.263511,69.3786737 335.859961,71.5509768 335.083711,73.60103 C334.293366,75.713716 333.110543,77.6578465 331.597613,79.3309069 C329.9934,81.0860056 328.042267,82.4889225 325.867736,83.4508406 C323.367337,84.5425499 320.659871,85.0788531 317.93211,85.0227537 L290.918022,85.0227537 Z M323.61128,42.7205427 C323.74123,40.8651065 322.989735,39.056822 321.583005,37.8400059 C320.21392,36.7371314 318.071554,36.1793558 315.117879,36.1793558 L300.095967,36.1793558 L300.095967,49.2617297 L315.117879,49.2617297 C318.071554,49.2617297 320.188566,48.7166308 321.583005,47.6010795 C322.911584,46.4518644 323.655708,44.7750739 323.624816,43.0292522 L323.61128,42.7205427 Z M300.095967,74.41234 L315.802421,74.41234 C318.920894,74.41234 321.198478,73.748925 322.635173,72.4220951 C324.034389,71.02925 324.814658,69.1322066 324.800734,67.1579682 C324.786046,65.1837298 323.978366,63.2981933 322.559113,61.9257719 C320.636226,60.4353971 318.228221,59.7125438 315.802421,59.8974968 L300.095967,59.8974968 L300.095967,74.41234 Z M392.838842,25.568942 C394.110142,25.5828369 395.133404,26.6174058 395.133328,27.8887816 L395.133328,62.686375 C395.181126,65.9208087 394.661987,69.1386151 393.599445,72.1939142 C392.634019,74.9398802 391.066006,77.4348397 389.010473,79.4957043 C386.857863,81.6143185 384.259273,83.2254446 381.404442,84.2114437 C374.48682,86.425831 367.050529,86.425831 360.132907,84.2114437 C357.281001,83.2193023 354.683687,81.6089679 352.526876,79.4957043 C350.476775,77.4575396 348.912563,74.9833978 347.950581,72.2572978 C346.997488,69.4130744 346.497036,66.4382902 346.466181,63.4416335 L346.467404,27.8887816 C346.467404,26.6215719 347.494681,25.5942955 348.761891,25.5942955 L355.632672,25.5942955 C356.899882,25.5942955 357.927158,26.6215719 357.927158,27.8887816 L357.927158,62.2553666 C357.879603,64.2774586 358.197389,66.2915337 358.865236,68.2007477 C359.936066,71.2788305 362.437713,73.6433363 365.57122,74.5391072 C367.25426,75.0349311 369.001522,75.2784371 370.755998,75.2616802 C372.522786,75.2757382 374.282199,75.0323244 375.978806,74.5391072 C377.510711,74.1088379 378.921306,73.327585 380.09874,72.2572978 C381.312628,71.1348379 382.249871,69.7463301 382.836911,68.2007477 C383.530876,66.2973445 383.86196,64.2807395 383.813018,62.2553666 L383.813018,27.8887816 C383.826731,26.6272957 384.846019,25.6080085 386.107505,25.5942955 L392.838842,25.568942 Z M405.832479,47.5630493 C405.904761,44.3763732 406.535478,41.227078 407.695957,38.2583377 C408.791057,35.5215608 410.474556,33.0590651 412.6272,31.0452846 C414.921087,28.9548897 417.623035,27.362208 420.562827,26.3675753 C428.14091,24.0819808 436.237583,24.1748934 443.761222,26.6337864 C446.55755,27.6761482 449.136452,29.2277873 451.367253,31.210082 C453.095178,32.7461056 454.466661,34.6410885 455.385773,36.7624848 C456.037101,38.2902953 456.464077,39.9042627 456.653445,41.5542846 C456.7392,42.1797055 456.50027,42.8057031 456.019609,43.2149348 C455.567809,43.631331 454.973304,43.858241 454.358959,43.8487707 L447.488177,43.8487707 C446.949239,43.8785134 446.417791,43.7118728 445.992325,43.3797321 C445.72562,43.1684705 445.49793,42.9131249 445.318792,42.6253522 L445.10252,42.2396387 L445.10252,42.2396387 L444.785704,41.709042 L444.785704,41.709042 L444.293644,40.9204486 L444.293644,40.9204486 C443.67171,40.0076125 442.900291,39.2061934 442.011835,38.5499022 C440.753499,37.6143458 439.365624,36.8670286 437.891901,36.3314764 C435.854177,35.6309416 433.707618,35.3003715 431.553542,35.355369 C427.85909,35.1838108 424.236399,36.415526 421.412167,38.8034366 C418.836223,41.1792007 417.35862,44.5152799 417.330263,48.0194112 C417.216173,50.1617767 417.165466,52.4689396 417.165466,54.9408997 L417.168041,56.7621877 C417.175766,58.5513878 417.206665,60.2461066 417.330263,61.8623883 C417.507737,66.5527743 418.864146,69.9754884 421.412167,72.0925004 C424.306944,74.3248658 427.902336,75.4529198 431.553542,75.2743569 C433.500719,75.2893094 435.442285,75.0636449 437.334126,74.6024908 C438.988442,74.1969585 440.536193,73.4403766 441.872391,72.384065 C443.19147,71.3149734 444.216673,69.9276769 444.85142,68.3528684 C445.605079,66.3887434 445.962668,64.294909 445.903588,62.191983 L445.903588,61.5201169 L435.546708,61.5201169 C434.288028,61.4997569 433.272582,60.4843106 433.252222,59.2256307 L433.252222,53.1661591 C433.272582,51.9074792 434.288028,50.892033 435.546708,50.871673 L455.094209,50.871673 C456.352889,50.892033 457.368335,51.9074792 457.388695,53.1661591 L457.388695,62.5089009 C457.41842,65.7111579 456.873126,68.8927522 455.778752,71.9023496 C454.737555,74.6969848 453.082767,77.2224859 450.936245,79.2928768 C448.618502,81.4585527 445.865601,83.1051071 442.861175,84.1227067 C435.536884,86.4212518 427.68429,86.4212518 420.359999,84.1227067 C417.416599,83.1237238 414.722959,81.5023519 412.462403,79.3689371 C410.340555,77.3005417 408.700221,74.7902685 407.657927,72.0164401 C406.525962,69.0144999 405.908811,65.8430289 405.832479,62.6356681 L405.802841,62.0874 L405.802841,62.0874 L405.754834,60.9338186 L405.754834,60.9338186 L405.719504,59.7041769 C405.714515,59.4928982 405.709938,59.2784504 405.705712,59.0608334 C405.693035,58.4079824 405.693035,57.7519622 405.696204,57.088019 L405.705712,55.0676669 L405.705712,55.0676669 L405.705712,51.0745005 L405.705712,51.0745005 C405.705712,50.2040325 405.733882,49.4124418 405.771443,48.6621678 L405.832479,47.5630493 L405.832479,47.5630493 Z M509.705514,74.3996633 C510.964194,74.4200233 511.97964,75.4354695 512,76.6941494 L512,82.7282676 C511.97964,83.9869475 510.964194,85.0023937 509.705514,85.0227537 L467.149769,85.0227537 C465.891089,85.0023937 464.875642,83.9869475 464.855282,82.7282676 L464.855282,76.6941494 C464.824596,76.0403431 464.987773,75.3920449 465.324321,74.8306717 L465.681095,74.3256312 C465.736771,74.2485568 465.790621,74.1750318 465.842748,74.1050563 L466.135631,73.7277972 L466.135631,73.7277972 L496.280869,36.1793558 L467.999109,36.1793558 C467.393517,36.1831811 466.812388,35.9406625 466.389165,35.5074897 C465.945595,35.0851181 465.69762,34.4973264 465.704623,33.8848696 L465.704623,27.8887816 C465.718336,26.6272957 466.737623,25.6080085 467.999109,25.5942955 L508.856174,25.5942955 C510.11766,25.6080085 511.136947,26.6272957 511.15066,27.8887816 L511.15066,33.9102231 C511.184091,34.9560301 510.785159,35.9694099 510.047785,36.711778 L479.813811,74.3996633 L509.705514,74.3996633 Z" fill="#804DDA"></path>
    </g>
</svg>

<svg preserveAspectRatio="xMidYMid" viewBox="0 0 512 111" xmlns="http://www.w3.org/2000/svg">
  <defs>
    <linearGradient id="fogbugz_svg__a" x1="-24.513%" x2="130.064%" y1="75.564%" y2="-56.513%">
      <stop offset="0%" stop-color="#AB68FC"/>
      <stop offset="86%" stop-color="#5521B3"/>
    </linearGradient>
    <linearGradient id="fogbugz_svg__b" x1="104.596%" x2="48.252%" y1="100.586%" y2="48.39%">
      <stop offset="2%" stop-color="#AA69FF"/>
      <stop offset="86%" stop-color="#C6B1FF"/>
    </linearGradient>
  </defs>
  <path fill="url(#fogbugz_svg__a)" d="m32.427 110.592 59.834-52.28H32.528s-.088 50.264-.101 52.28Z"/>
  <path fill="url(#fogbugz_svg__b)" d="M59.847 0 0 58.313h59.58S59.835 1.52 59.848 0Z"/>
  <path fill="#804DDA" d="M157.914 25.569a2.32 2.32 0 0 1 2.295 2.32v6.021c.006.613-.242 1.2-.685 1.623a2.231 2.231 0 0 1-1.61.672h-27.09v16.48h25.353a2.333 2.333 0 0 1 2.282 2.269v6.034a2.333 2.333 0 0 1-2.294 2.294H130.81v19.446a2.333 2.333 0 0 1-2.294 2.295h-6.82a2.333 2.333 0 0 1-2.295-2.295v-54.84a2.32 2.32 0 0 1 2.295-2.32h36.217Zm9.419 22.159c.142-3.06.758-6.079 1.825-8.95a20.486 20.486 0 0 1 4.627-7.314 22.02 22.02 0 0 1 7.606-4.919 29.309 29.309 0 0 1 10.864-1.825 29.917 29.917 0 0 1 10.788 1.774 20.917 20.917 0 0 1 12.322 12.233 29.156 29.156 0 0 1 1.863 9c0 .36.012.732.027 1.116l.056 1.192c.019.41.036.832.044 1.268.019.979.01 1.98.004 3.002l-.004 5.06c0 .554-.014 1.1-.034 1.623l-.093 1.952a29.74 29.74 0 0 1-1.724 8.962 20.498 20.498 0 0 1-4.627 7.302 21.55 21.55 0 0 1-7.682 4.88 33.834 33.834 0 0 1-21.702 0 21.55 21.55 0 0 1-7.606-4.88 20.283 20.283 0 0 1-4.627-7.302 29.74 29.74 0 0 1-1.927-8.962c0-.36-.012-.731-.028-1.116l-.088-1.816c-.01-.21-.017-.425-.024-.643a54.828 54.828 0 0 1-.014-1.982l.014-2.05v-4.03c0-.436.016-.858.036-1.268l.068-1.192c.02-.384.036-.756.036-1.115Zm38.474.43a13.349 13.349 0 0 0-3.956-9.469 15.212 15.212 0 0 0-19.103 0 13.349 13.349 0 0 0-3.943 9.483 120.144 120.144 0 0 0-.147 4.621l-.016 1.684v2.596c.006 1.976.035 3.812.163 5.449a13.21 13.21 0 0 0 3.955 9.431 15.44 15.44 0 0 0 19.104 0 13.21 13.21 0 0 0 3.955-9.431l.033-.724.055-1.503c.024-.77.044-1.568.057-2.392l.018-1.686.002-.87-.002-.87-.018-1.686a155.15 155.15 0 0 0-.057-2.393l-.055-1.503c-.01-.244-.022-.485-.033-.723l-.012-.013Zm20.561-.595c.056-3.184.67-6.333 1.813-9.305a20.105 20.105 0 0 1 4.931-7.213 22.476 22.476 0 0 1 7.936-4.677 38.702 38.702 0 0 1 23.198.266 23.946 23.946 0 0 1 7.606 4.576 15.757 15.757 0 0 1 4.07 5.552 17.228 17.228 0 0 1 1.267 4.792 1.85 1.85 0 0 1-.634 1.66 2.396 2.396 0 0 1-1.66.635h-6.871a2.206 2.206 0 0 1-1.496-.47 2.954 2.954 0 0 1-.674-.754l-.216-.385-.317-.531-.492-.789a9.824 9.824 0 0 0-2.281-2.37 16.15 16.15 0 0 0-4.12-2.219 18.077 18.077 0 0 0-6.339-.976 14.654 14.654 0 0 0-10.141 3.448 12.677 12.677 0 0 0-4.082 9.216 125.227 125.227 0 0 0-.162 5.873l-.003 1.968.009 1.789c.014 1.465.053 2.866.156 4.213.177 4.69 1.534 8.113 4.082 10.23a15.377 15.377 0 0 0 10.141 3.182 23.59 23.59 0 0 0 5.78-.672 11.878 11.878 0 0 0 4.54-2.243 10.002 10.002 0 0 0 2.978-4.031 15.947 15.947 0 0 0 1.052-6.161v-.672h-10.37a2.333 2.333 0 0 1-2.294-2.295v-6.034a2.333 2.333 0 0 1 2.295-2.294h19.535a2.333 2.333 0 0 1 2.294 2.294v9.343a26.76 26.76 0 0 1-1.547 9.393 19.94 19.94 0 0 1-4.842 7.39 22.311 22.311 0 0 1-8.075 4.83 37.574 37.574 0 0 1-22.501 0 21.64 21.64 0 0 1-7.898-4.753 20.181 20.181 0 0 1-4.804-7.353 28.51 28.51 0 0 1-1.826-9.38c0-.36-.011-.731-.027-1.116l-.055-1.191c-.02-.41-.036-.833-.045-1.268a81.6 81.6 0 0 1-.01-1.973l.01-2.02v-3.993a58.8 58.8 0 0 1 .09-3.512Zm64.55 37.46a2.333 2.333 0 0 1-2.294-2.295v-54.84a2.32 2.32 0 0 1 2.294-2.294h25.05c3.111-.099 6.21.463 9.088 1.648a17.342 17.342 0 0 1 5.87 4.17 15.567 15.567 0 0 1 3.182 5.44c.615 1.76.945 3.61.976 5.476a13.944 13.944 0 0 1-.685 4.538 13.45 13.45 0 0 1-1.648 3.397 15.897 15.897 0 0 1-1.889 2.307 9.115 9.115 0 0 1-1.572 1.268 18.762 18.762 0 0 1 4.843 5.07 14.477 14.477 0 0 1 2.157 7.765l-.015.514a18.394 18.394 0 0 1-1.191 6.414 17.887 17.887 0 0 1-3.486 5.73 17.177 17.177 0 0 1-5.73 4.12 18.863 18.863 0 0 1-7.936 1.572h-27.014Zm32.693-42.302a5.907 5.907 0 0 0-2.028-4.881c-1.37-1.103-3.511-1.66-6.465-1.66h-15.022v13.082h15.022c2.954 0 5.07-.545 6.465-1.66a5.907 5.907 0 0 0 2.042-4.573l-.014-.308Zm-23.515 31.691h15.706c3.119 0 5.396-.663 6.833-1.99a7.354 7.354 0 0 0-.076-10.496 9.812 9.812 0 0 0-6.757-2.029h-15.706v14.515Zm92.743-48.843a2.32 2.32 0 0 1 2.294 2.32v34.797a27.699 27.699 0 0 1-1.534 9.508 19.497 19.497 0 0 1-4.589 7.302 20.283 20.283 0 0 1-7.606 4.715 34.886 34.886 0 0 1-21.271 0 20.486 20.486 0 0 1-7.606-4.715 19.23 19.23 0 0 1-4.576-7.239 28.675 28.675 0 0 1-1.485-8.815l.001-35.553a2.294 2.294 0 0 1 2.295-2.295h6.87a2.294 2.294 0 0 1 2.295 2.295v34.366a16.81 16.81 0 0 0 .938 5.946 10.015 10.015 0 0 0 6.706 6.338c1.683.496 3.43.74 5.185.723 1.767.014 3.526-.23 5.223-.723a10.243 10.243 0 0 0 4.12-2.282 10.7 10.7 0 0 0 2.738-4.056 16.214 16.214 0 0 0 .976-5.946V27.89a2.32 2.32 0 0 1 2.295-2.295l6.73-.025Zm12.993 21.994a27.255 27.255 0 0 1 1.864-9.305 20.105 20.105 0 0 1 4.931-7.213 22.476 22.476 0 0 1 7.936-4.677 38.702 38.702 0 0 1 23.198.266 24.15 24.15 0 0 1 7.606 4.576 15.871 15.871 0 0 1 4.019 5.552 17.228 17.228 0 0 1 1.267 4.792 1.85 1.85 0 0 1-.633 1.66 2.396 2.396 0 0 1-1.661.635h-6.87a2.231 2.231 0 0 1-1.497-.47 2.954 2.954 0 0 1-.673-.754l-.216-.385-.317-.531-.492-.789a9.824 9.824 0 0 0-2.282-2.37 16.15 16.15 0 0 0-4.12-2.219 18.077 18.077 0 0 0-6.338-.976 14.654 14.654 0 0 0-10.142 3.448 12.677 12.677 0 0 0-4.082 9.216 130.93 130.93 0 0 0-.165 6.922l.003 1.821c.008 1.79.039 3.484.162 5.1.178 4.69 1.534 8.113 4.082 10.23a15.377 15.377 0 0 0 10.142 3.182c1.947.015 3.888-.21 5.78-.672a11.878 11.878 0 0 0 4.538-2.218 10.002 10.002 0 0 0 2.98-4.031 15.947 15.947 0 0 0 1.052-6.161v-.672h-10.357a2.333 2.333 0 0 1-2.295-2.294v-6.06a2.333 2.333 0 0 1 2.295-2.294h19.547a2.333 2.333 0 0 1 2.295 2.294v9.343a26.76 26.76 0 0 1-1.61 9.393 19.94 19.94 0 0 1-4.843 7.39 22.311 22.311 0 0 1-8.075 4.83 37.574 37.574 0 0 1-22.501 0 21.64 21.64 0 0 1-7.898-4.753 20.181 20.181 0 0 1-4.804-7.353 28.51 28.51 0 0 1-1.826-9.38l-.03-.549-.047-1.153-.035-1.23-.014-.643a81.6 81.6 0 0 1-.01-1.973l.01-2.02v-3.993c0-.871.028-1.663.065-2.413l.061-1.099ZM509.706 74.4A2.333 2.333 0 0 1 512 76.694v6.034a2.333 2.333 0 0 1-2.294 2.295H467.15a2.333 2.333 0 0 1-2.295-2.295v-6.034a3.321 3.321 0 0 1 .47-1.863l.356-.505.162-.22.293-.378 30.145-37.549h-28.282a2.231 2.231 0 0 1-1.61-.672 2.206 2.206 0 0 1-.684-1.622v-5.996a2.32 2.32 0 0 1 2.294-2.295h40.857a2.32 2.32 0 0 1 2.295 2.295v6.021a3.803 3.803 0 0 1-1.103 2.802L479.814 74.4h29.892Z"/>
</svg>
